X:1
T:Wolfsburg, 11.10.11.10 D
T:Wolfsburg, 11.10.11.10 D
T:George Coles Stebbins, 1885
T:Public Domain Courtesy of the Cyber Hymnal™
C:George Coles Stebbins, 1885
Z:Public Domain
Z:Courtesy of the Cyber Hymnal™
%%score ( 1 2 ) ( 3 4 )
L:1/8
Q:1/4=93
M:4/4
K:F
V:1 treble 
V:2 treble 
V:3 bass 
V:4 bass 
V:1
 [FA][FG][FA] | [CF]3 C [CF][CA][Fc][FB] | [FA]2 [EG]2 z [CG][CF][EG] | %3
 [FA]3 [FA] [F=B][FB][FA][FG] | [Ec]4 z [Ec][Ed][Ec] | [FA]3 [FA] [FB][CA][DG]D | %6
 [CF]2 [CE]2 z [CE][CF][EG] | [FA][Fc][Fc][FB] [FA]2 [EG]2 | F4 z [EG][CE][EG] | %9
 [Ec]3 [Ed] [Fc][F=B][FA][FB] | [FA]2 [EG]2 z [EG][Ec][Fd] | [Ge]3 E [Ge][Fd][Ec][F=B] | %12
 [Ec]4 z [Ec][Ed][Ec] | [FA]3 [FA] [FB][CA][DG]D | [CF]2 [CE]2 z [CE][CF][EG] | %15
 [FA][Fc][Fc][FB] [FA]2 [EG]2 | F4 z |] %17
V:2
 x3 | x3 C x4 | x8 | x8 | x8 | x7 D | x8 | x8 | F4 x4 | x8 | x8 | x8 | x8 | x7 D | x8 | x8 | %16
 F4 x |] %17
V:3
 [F,C][F,B,][F,C] | [F,A,]3 [F,A,] [F,A,][F,C][A,,C][B,,D] | [C,C]2 [C,C]2 z [C,B,][C,A,][C,B,] | %3
 [F,C]3 [F,D] [G,D][G,D][G,C][G,=B,] | [C,C]4 z [C,B,][C,B,][C,B,] | %5
 [F,A,]3 [F,C] [F,D][F,C][B,,B,][B,,G,] | [C,A,]2 [C,G,]2 z [C,G,][C,A,][C,C] | %7
 [F,C][F,_E][B,,D][B,,D] [C,C]2 [C,B,]2 | [F,A,]4 z [C,C][C,G,][C,G,] | %9
 [C,G,]3 [C,C] [G,D][G,D][G,D][G,D] | [C,C]2 [C,C]2 z [C,C][C,G,][C,G,] | %11
 [C,C]3 [C,C] [F,A,][F,A,]G,G, | [C,G,]4 z [C,B,][C,B,][C,B,] | %13
 [F,A,]3 [F,C] [F,D][F,C][B,,A,][B,,G,] | [C,A,]2 [C,G,]2 z [C,G,][C,A,][C,C] | %15
 [F,C][A,,_E][B,,D][B,,D] [C,C]2 [C,B,]2 | [F,A,]4 z |] %17
V:4
 x3 | x8 | x8 | x8 | x8 | x8 | x8 | x8 | x8 | x8 | x8 | x6 G,G, | x8 | x8 | x8 | x8 | x5 |] %17

